X: 20736
T: Johnny Doherty's
R: reel
M: 4/4
K: Dmajor
F2FE FGAG|Ad{e}dc d2ea|fded cABd|=cAGE D/D/D DE|
F/F/F {G}FE FGAG|Ad{e}dc d2eg|fded cABd|=cAGE FDDg||
{fg}f2ed cAAg|fdec dfag|{fg}f2ed cABd|=cAGE D/D/D Dg|
{fg}f2ed cAAg|fdec dfeg|{fg}f2ed cABd|=cAGE FDDE||

